X:1
T:O sacrum convivium - Croce
T:James Gibb editions
T:#
%%score [ 1 2 3 4 ]
L:1/8
Q:1/4=200
M:none
K:F
V:1 treble nm="Soprano" snm="S"
V:2 treble nm="Alto" snm="A"
V:3 treble-8 nm="Tenor" snm="T"
V:4 bass nm="Bass" snm="B"
V:1
 z8 c8 |"^O sacrum convivium" A8 F8- | F4 F4 (F6 G2 | A4 B4 c6)"^Giovanni Croce\n(1557-1609)" c2 | %4
w: O|sa- crum|* con- vi\- *|* * * vi-|
 A4 A8 G4 | (A4 G2 F2 A4 G4) | F4 c8 =B4 | (c2 _B2 A2 G2 A4) G4 | (A4 G2 F2 A4) G4 | F4 c8 =B4 | %10
w: um, in quo|Chri\- * * * *|stus, in quo|Chri\- * * * * stus|su\- * * * mi-|tur, in quo|
 (c2 _BA G8) c4 | (B8 A6) A2 | G8 z4 G4 | G6 G2 G8 | z4 c4 B4 B4 | A8 (F6 G2 | A4 G4 G8 | %17
w: Chri\- * * * stus|su\- * mi-|tur; re-|co- li- tur|me- mo- ri-|a pas\- *|* si- o-|
 G4 (c8 =B4) | c4 G8 G4 | E4 G4 A8- | A8 G8 | G6 F2 E2 D2 C4) | (c6 B2 A2 G2 F4- | F4) A4 A4 G4 | %24
w: nis e\- *|ius, pas- si-|o- nis e\-|* ius;|mens, * * * *|mens * * * *|* im- ple- tur|
 B4 B4 A8 | (c6 B2 A2 G2 F4- | F4 F4 (F6 G2 | A12) G4 | B4 B4 A4 F4- | F2 G2 A2 B2 c8- | %30
w: gra- ti- a;|et * * * *|* fu- tu\- *|* rae|glo- ri- ae, no\-||
 c4) c4 B8 | A8 G8 | A4 A4 G4 B4 | A8 z8 | (F6 G2 A2 B2 c2 BA | G8) G4 (c4- | c4 =B4) c8 | %37
w: * bis pi-|gnus da-|tur. Al- le- lu-|ia,|al\- * * * * * *|* le- lu\-|* * ia,|
 (c6 _B2 A2 G2 F4- | F4) F4 (F4 E4) | F4 A4 G4 B4 | A8 z8 | (F6 G2 A2 B2 c2 BA | G8 G4 (c4- | %43
w: al\- * * * *|* le- lu\- *|ia, al- le- lu-|ia,|al\- * * * * * *|* le- lu\-|
 c4 =B4) c8 | c6 _B2 A2 G2 F4- | F4)[Q:1/4=198] F4[Q:1/4=195] (F4[Q:1/4=192] E4) | %46
w: * * ia,|al\- * * * *|* le- lu\- *|
[Q:1/4=185] F16- |[Q:1/4=175] F16 |[Q:1/4=170] F16 |] %49
w: ia.|||
V:2
 z16 | z8 F8 | D8 C8 | F4 F8 E4 | F8 z8 | z4 F8 E4 | F4 F4 D6 D2 | C8 z8 | z4 F8 E4 | F4 F4 D6 D2 | %10
w: |O|sa- crum|con- vi- vi-|um,|in quo|Chri- stus su- mi-|tur,|in quo|Chri- stus su- mi-|
 E4 E8 C4 | (D2 E2 F2 G2 F8- | F4) E4 D6 D2 | E4 E4 E6 E2 | E4 A4 D4 G4 | C8 z4 F4- | F4 E4 D4 D4 | %17
w: tur, in quo|Chri\- * * * *|* stus su- mi-|tur; re- co- li-|tur me- mo- ri-|a pas\-|* si- o- nis|
 (E4 D2 C2 D8) | C8 z4 G4- | G4 E4 F4 E4 | (F6 E2 D8) | E4 (G6 F2 E2 D2 | C4) E4 F4 C4 | %23
w: e\- * * *|ius, pas\-|* si- o- nis|e\- * *|ius; mens * * *|* im- ple- tur,|
 z4 F4 E6 E2 | F4 G4 C8 | z8 (F6 E2 | D2 C2 B,8) A,4 | (A,6 B,2 C4) C4 | D4 E4 F8 | %29
w: im- ple- tur|gra- ti- a;|et *|* * * fu-|tu\- * * rae|glo- ri- ae,|
 z4 (C6 D2 E2 F2 | G4) E4 D8 | C4 (F8 E4) | F4 F4 E4 D4 | F8 z8 | z8 (C6 D2 | E2 F2 G4) E4 (G4- | %36
w: no\- * * *|* bis pi-|gnus da\- *|tur. Al- le- lu-|ia,|al\- *|* * * le- lu\-|
 G2 FE D4) E8 | z8 (F6 E2 | D4) D4 C8 | C4 F4 E4 D4 | F8 z8 | z8 (C6 D2 | E2 F2 G4) E4 (G4- | %43
w: * * * * ia,|al\- *|* le- lu-|ia, al- le- lu-|ia,|al\- *|* * * le- lu\-|
 G2 FE D4) E8 | z8 (F6 E2 | D4) D4 C8 | C4 (C8 D4- | D4) C4 (B,8- | B,4 A,2 G,2) A,8 |] %49
w: * * * * ia,|al\- *|* le- lu-|ia, al\- *|* le lu\-|* * * ia.|
V:3
 c8 A8 | (F6 G2 A4) A4 | (B8 A6 G2 | F8) G8 | F8 z4 c4- | c4 B4 (c6 B2 | A4) A4 G6 G2 | c8 z4 c4- | %8
w: O sa-|crum * * con|vi\- * *|* vi-|um, in|* quo Chri\- *|* stus su- mi-|tur, in|
 c4 B4 (c6 B2 | A4) A4 G6 G2 | c8 z4 f4- | f4 d4 c8 | =B4 c8 B4 | c8 z8 | z4 f8 e4 | %15
w: * quo Chri\- *|* stus su- mi-|tur, in|* quo Chri-|stus su- mi-|tur;|pas- si-|
 (f6 e2 d4) d4 | c8 G4 g4- | g4 f4 (g6 f2 | e4) e4 d8 | c4 c8 c4 | c4 c2 (c4 =BA B4) | c8 (g6 f2 | %22
w: o\- * * nis|e- ius, pas\-|* si- o\- *|* nis e-|ius, pas- si-|o- nis e\- * * *|ius; mens *|
 e2 d2 c8) A4 | (A6 B2 c4) c4 | d4 e4 f4 (c4- | c2 B2 A2 G2 F4) A4 | (B2 c2 d4) c4 f4- | %27
w: * * * im-|ple\- * * tur|gra- ti- a; et|* * * * * fu-|tu\- * * rae, et|
 f4 f4 e4 e4 | f4 g4 c8 | z8 (c6 d2 | e2 f2 g8) f4 | f4 c4 c8 | c8 z8 | z4 A4 G4 B4 | A8 z4 (c4- | %35
w: * fu- tu- rae|glo- ri- ae,|no\- *|* * * bis|pi- gnus da-|tur.|Al- le- lu-|ia, al\-|
 c2 d2 e2 f2 g4) e4 | d8 c4 (c4- | c2 B2 A2 G2 F2 G2 A4 | B6) A2 G8 | F8 z8 | z4 A4 G4 B4 | %41
w: * * * * * le-|lu- ia, al\-||* le- lu-|ia,|al- le- lu-|
 A8 z4 (c4- | c2 d2 e2 f2 g4) e4 | d8 c4 (c4- | c2 B2 A2 G2 F2 G2 A4 | B6) A2 G8 | (F6 G2 A8) | %47
w: ia, al\-|* * * * * le-|lu- ia, al\-||* le- lu-|ia, * *|
 B4 c4 d8 | c16 |] %49
w: al- le- lu-|ia.|
V:4
 z16 | F,8 D,8 | B,,4 B,,4 (F,6 E,2 | D,4) D,4 C,8 | z4 F,8 E,4 | F,4 D,4 C,6 C,2 | F,8 z8 | %7
w: |O sa-|crum con- vi\- *|* vi- um,|in quo|Chri- stus su- mi-|tur,|
 z4 F,8 E,4 | F,4 D,4 C,6 C,2 | F,8 z8 | z4 C8 A,4 | B,8 F,8 | G,12 G,4 | C,4 C4 C6 C2 | %14
w: in quo|Chri- stus su- mi-|tur,|in quo|Chri- stus|su- mi-|tur; re- co- li-|
 C4 A,4 B,4 G,4 | F,8 z8 | z4 C8 =B,4 | C4 A,4 G,8 | C,4 C8 =B,4 | (C6 _B,2 A,6 G,2 | %20
w: tur me- mo- ri-|a|pas- si-|o- nis e-|ius, pas- si-|o\- * * *|
 F,4) F,4 G,8 | C,8 z4 (C4- | C2 B,2 A,2 G,2 F,4) F,4 | (D,2 E,2 F,2 G,2 A,4) C4 | B,4 G,4 F,8 | %25
w: * nis e-|ius; mens|* * * * * im-|ple\- * * * * tur|gra- ti- a;|
 z4 (F,6 E,2 D,2 C,2 | B,,4 B,,4 (F,6 E,2 | D,2 E,2 F,2 G,2 A,4) C4 | B,4 G,4 F,8 | %29
w: et * * *|* fu- tu\- *|* * * * * rae|glo- ri- ae,|
 F,6 G,2 A,2 B,2 C4- | C4) C4 G,4 B,4 | (F,2 G,2 A,2 B,2 C8) | F,8 z8 | z4 F,4 E,4 D,4 | %34
w: no\- * * * *|* bis pi- gnus|da\- * * * *|tur.|Al- le- lu-|
 F,4 (F,6 G,2 A,2 B,2 | C12) C4 | G,8 C,8 | z4 (F,6 E,2 D,2 C,2 | B,,4) B,,4 C,8 | F,8 z8 | %40
w: ia, al\- * * *|* le-|lu- ia.|al\- * * *|* le- lu-|ia,|
 z4 F,4 E,4 D,4 | F,4 (F,6 G,2 A,2 B,2 | C12 C4 | G,8 C,8 | z4 (F,6 E,2 D,2 C,2 | B,,4) B,,4 C,8 | %46
w: al- le- lu-|ia, al\- * * *|* le-|lu- ia,|al\- * * *|* le- lu-|
 F,4 F,6 E,2 D,2 C,2 | B,,4) A,,4 B,,8 | F,16 |] %49
w: ia, al\- * * *|* le- lu-|ia.|

